X:159
%%etbk:tnset id:54,pos:1,rep:3x,ant:
%%etbk:tnset id:264,pos:4,rep:3x,ant:
%%etbk:tnset id:340,pos:1,rep:3x,ant:
%%etbk:wsite http://www.thesession.org/tunes/display/938
%%etbk:pldat 2016-06-22T16:33,2016-06-20T18:09,2016-05-05T15:37,2016-05-03T15:23,2016-03-11T16:56,2016-03-09T17:17,2016-03-08T15:50,2016-03-05T14:06,2016-02-23T16:46,2016-02-07T15:03,2015-11-03T16:20,2015-10-28T16:15,2015-10-26T18:22,2015-10-22T19:17,2015-10-15T19:28,2015-10-03T16:20,2015-09-08T19:24,2015-06-22T18:14,2015-06-16T16:59,2015-05-27T18:56,2015-04-22T15:46,2015-03-12T18:43,2015-03-09T18:22,2015-03-03T18:18,2015-02-22T16:22,2015-02-17T17:40,2015-02-14T13:12,2015-02-11T16:19,2015-02-10T17:49,2015-01-28T17:07,2014-11-05T19:00,2014-11-04T17:06,2014-11-02T15:18,2014-10-29T16:11,2014-10-24T18:20,2014-10-12T14:09,2014-09-03T19:15,2014-09-02T19:06,2014-09-01T19:06,2014-08-31T14:21,2014-08-27T19:12,2014-08-21T18:41,2014-08-20T18:15,2014-08-18T19:33,2014-06-25T15:34,2014-06-11T16:29,2014-03-05T19:34,2014-03-02T15:57,2014-02-25T19:11,2014-02-12T18:08,2013-10-30T15:39,2013-10-28T18:21,2013-10-24T18:52,2013-10-18T16:05,2013-10-14T18:46,2013-10-09T16:20,2013-09-11T19:05,2013-08-29T16:39
T: Lady On The Island, The
Z: Piano Box Version by Martin Fleischmann
H: Created 2013-02-19 /  Last Modified 2013-02-19
M: 4/4
L: 1/8
R: reel
K: Dmaj
 "D"!2!B!1!A!2!F!5!B !4!AF!1!E!2!F | !1!DD!2!F!1!A BA!4!d!2!B | {d}!2!B!1!A!2!F!5!B !1!A3!2!B |1 !4!d!2!efd "A"!2!ef!1!d!2!B :|2 !4!d!2!efd "A"!2!e4|
 "D"!1!d2fd "A"!2!efge | "D"!5!afdf !2!e!1!d!2!B!3!c | !1!d2fd !2!efge | !5!afdf "A"!2!e4 | 
"D"!1!d2fd "A"!2!efge | "D"!5!afdf !2!e!1!d!2!B!3!c !1!defg !5!a!3!f!5!b!3!f | !5!afdf "A"!2!e{g}e!1!d!2!B ||


